cypex/img/main/strengths__1.svg

<svg width="129" height="128" viewBox="0 0 129 128" fill="none" xmlns="http://www.w3.org/2000/svg">
<g filter="url(#filter0_d_2_1224)">
<circle cx="64.5" cy="59.9998" r="32" fill="#7DC1C1"/>
</g>
<path d="M74.3333 64V69.3333H55.6667V64H74.3333ZM75.6667 61.3333H54.3333C53.6 61.3333 53 61.9333 53 62.6667V70.6667C53 71.4 53.6 72 54.3333 72H75.6667C76.4 72 77 71.4 77 70.6667V62.6667C77 61.9333 76.4 61.3333 75.6667 61.3333ZM58.3333 68.6667C57.24 68.6667 56.3333 67.7733 56.3333 66.6667C56.3333 65.56 57.24 64.6667 58.3333 64.6667C59.4267 64.6667 60.3333 65.56 60.3333 66.6667C60.3333 67.7733 59.44 68.6667 58.3333 68.6667ZM74.3333 50.6667V56H55.6667V50.6667H74.3333ZM75.6667 48H54.3333C53.6 48 53 48.6 53 49.3333V57.3333C53 58.0667 53.6 58.6667 54.3333 58.6667H75.6667C76.4 58.6667 77 58.0667 77 57.3333V49.3333C77 48.6 76.4 48 75.6667 48ZM58.3333 55.3333C57.24 55.3333 56.3333 54.44 56.3333 53.3333C56.3333 52.2267 57.24 51.3333 58.3333 51.3333C59.4267 51.3333 60.3333 52.24 60.3333 53.3333C60.3333 54.4267 59.44 55.3333 58.3333 55.3333Z" fill="white"/>
<defs>
<filter id="filter0_d_2_1224" x="0.5" y="-0.000244141" width="128" height="128" filterUnits="userSpaceOnUse" color-interpolation-filters="sRGB">
<feFlood flood-opacity="0" result="BackgroundImageFix"/>
<feColorMatrix in="SourceAlpha" type="matrix" values="0 0 0 0 0 0 0 0 0 0 0 0 0 0 0 0 0 0 127 0" result="hardAlpha"/>
<feOffset dy="4"/>
<feGaussianBlur stdDeviation="16"/>
<feComposite in2="hardAlpha" operator="out"/>
<feColorMatrix type="matrix" values="0 0 0 0 0.364706 0 0 0 0 1 0 0 0 0 1 0 0 0 1 0"/>
<feBlend mode="normal" in2="BackgroundImageFix" result="effect1_dropShadow_2_1224"/>
<feBlend mode="normal" in="SourceGraphic" in2="effect1_dropShadow_2_1224" result="shape"/>
</filter>
</defs>
</svg>

<svg width="129" height="128" fill="none" xmlns="http://www.w3.org/2000/svg"><g filter="url(#a)"><circle cx="64.5" cy="60" r="32" fill="#7DC1C1"/></g><path d="M74.333 64v5.333H55.667V64h18.666Zm1.334-2.667H54.333c-.733 0-1.333.6-1.333 1.334v8C53 71.4 53.6 72 54.333 72h21.334C76.4 72 77 71.4 77 70.667v-8c0-.734-.6-1.334-1.333-1.334Zm-17.334 7.334c-1.093 0-2-.894-2-2 0-1.107.907-2 2-2 1.094 0 2 .893 2 2 0 1.106-.893 2-2 2Zm16-18V56H55.667v-5.333h18.666ZM75.667 48H54.333C53.6 48 53 48.6 53 49.333v8c0 .734.6 1.334 1.333 1.334h21.334c.733 0 1.333-.6 1.333-1.334v-8C77 48.6 76.4 48 75.667 48Zm-17.334 7.333c-1.093 0-2-.893-2-2 0-1.106.907-2 2-2 1.094 0 2 .907 2 2 0 1.094-.893 2-2 2Z" fill="#fff"/><defs><filter id="a" x=".5" y="0" width="128" height="128" filterUnits="userSpaceOnUse" color-interpolation-filters="sRGB"><feFlood flood-opacity="0" result="BackgroundImageFix"/><feColorMatrix in="SourceAlpha" values="0 0 0 0 0 0 0 0 0 0 0 0 0 0 0 0 0 0 127 0" result="hardAlpha"/><feOffset dy="4"/><feGaussianBlur stdDeviation="16"/><feComposite in2="hardAlpha" operator="out"/><feColorMatrix values="0 0 0 0 0.364706 0 0 0 0 1 0 0 0 0 1 0 0 0 1 0"/><feBlend in2="BackgroundImageFix" result="effect1_dropShadow_2_1224"/><feBlend in="SourceGraphic" in2="effect1_dropShadow_2_1224" result="shape"/></filter></defs></svg>
